X: 13843
T: Four Up
R: hornpipe
M: 4/4
K: Eminor
|:E2 EF G2 GA|BAG B2AG2|AFAB AGF2|E2 F2 G2 F2|
E2 EF G2 GA|BAG B2AG2|AFAB AGF2|G2 F2 E4:|
|:c2 cc2 cc2|BAG B2AG2|AFAB AGF2|G2 A2 B4|
c2 cc2 cc2|BAG B2AG2|AFAB AGF2|G2 F2 E4:|

